rospo-light/small/status/network-error-symbolic.svg

<?xml version="1.0" encoding="UTF-8" standalone="no"?>
<svg
   xmlns:dc="http://purl.org/dc/elements/1.1/"
   xmlns:cc="http://creativecommons.org/ns#"
   xmlns:rdf="http://www.w3.org/1999/02/22-rdf-syntax-ns#"
   xmlns:svg="http://www.w3.org/2000/svg"
   xmlns="http://www.w3.org/2000/svg"
   xmlns:sodipodi="http://sodipodi.sourceforge.net/DTD/sodipodi-0.dtd"
   xmlns:inkscape="http://www.inkscape.org/namespaces/inkscape"
   width="22"
   height="22"
   version="1.1"
   id="svg8"
   sodipodi:docname="network-error-symbolic.svg"
   inkscape:version="0.92.1 r">
  <metadata
     id="metadata14">
    <rdf:RDF>
      <cc:Work
         rdf:about="">
        <dc:format>image/svg+xml</dc:format>
        <dc:type
           rdf:resource="http://purl.org/dc/dcmitype/StillImage" />
      </cc:Work>
    </rdf:RDF>
  </metadata>
  <defs
     id="defs12" />
  <sodipodi:namedview
     pagecolor="#ffffff"
     bordercolor="#666666"
     borderopacity="1"
     objecttolerance="10"
     gridtolerance="10"
     guidetolerance="10"
     inkscape:pageopacity="0"
     inkscape:pageshadow="2"
     inkscape:window-width="769"
     inkscape:window-height="480"
     id="namedview10"
     showgrid="false"
     inkscape:zoom="10.727273"
     inkscape:cx="10.286177"
     inkscape:cy="11"
     inkscape:window-x="0"
     inkscape:window-y="0"
     inkscape:window-maximized="0"
     inkscape:current-layer="svg8" />
  <g
     id="g4494"
     transform="translate(3,3.5)">
    <path
       id="path2"
       d="M 10,0 V 2 H 7 v 5 h 3 V 9 L 11,8.1816 V 5 h 3.889 L 15.5,4.5 Z"
       style="opacity:0.3;fill:#5c616c"
       inkscape:connector-curvature="0" />
    <path
       id="path4"
       d="M 6,6 0.5,10.5 6,15 V 13 H 9 V 8 H 6 Z"
       style="opacity:0.3;fill:#5c616c"
       inkscape:connector-curvature="0" />
    <path
       id="path6"
       d="m 12,6 v 4 l 0.25,2 h 1.5 L 14,10 V 6 Z m 0,7 v 2 h 2 v -2 z"
       class="warning"
       style="fill:#5294e2"
       inkscape:connector-curvature="0" />
  </g>
</svg>

<svg xmlns="http://www.w3.org/2000/svg" width="16" height="16" version="1.1">
 <path style="fill:#5c616c;opacity:0.3" d="M 10 0 L 10 2 L 7 2 L 7 7 L 10 7 L 10 9 L 11 8.1816 L 11 5 L 14.889 5 L 15.5 4.5 L 10 0 z"/>
 <path style="fill:#5c616c;opacity:0.3" d="M 6,6 0.5,10.5 6,15 V 13 H 9 V 8 H 6 Z"/>
 <path style="fill:#5294e2" class="warning" d="M 12,6 V 10 L 12.25,12 H 13.75 L 14,10 V 6 Z M 12,13 V 15 H 14 V 13 Z"/>
</svg>
